clients/portal/components/icon/svgs/link.svg

<svg xmlns="http://www.w3.org/2000/svg" height="24" viewBox="0 0 24 24" width="24"><path d="M0 0h24v24H0V0z" fill="currentColor"/><path d="M17 7h-4v2h4c1.65 0 3 1.35 3 3s-1.35 3-3 3h-4v2h4c2.76 0 5-2.24 5-5s-2.24-5-5-5zm-6 8H7c-1.65 0-3-1.35-3-3s1.35-3 3-3h4V7H7c-2.76 0-5 2.24-5 5s2.24 5 5 5h4v-2zm-3-4h8v2H8z"/></svg>

<svg width="24" height="24" viewBox="0 0 24 24" fill="none" xmlns="http://www.w3.org/2000/svg">
<path d="M17 7H13V9H17C18.65 9 20 10.35 20 12C20 13.65 18.65 15 17 15H13V17H17C19.76 17 22 14.76 22 12C22 9.24 19.76 7 17 7ZM11 15H7C5.35 15 4 13.65 4 12C4 10.35 5.35 9 7 9H11V7H7C4.24 7 2 9.24 2 12C2 14.76 4.24 17 7 17H11V15ZM8 11H16V13H8V11Z" fill="#475569"/>
</svg>
